!!!SOCIAL_FUNCTION:	songs of personal narratives concerning war
!!!PDT:	1918

Specific Region: Dakotas, Minnesota, Montana, Nebraska
!!!REG: Dakotas and Montana
!!!LING_GROUP: Siouan
!!!LANG: Tone
!!!OTL@ENG: I Look for Them
!!!ONM: No. 179
**kern
*Imale
*clefF4
*k[b-e-a-d-]
*M2/4
*MM72
8f
=1
4f
[4f
=2
4f]
8f
16f
16f
=3
16f
8.c
4c
=4
4f
16f
[8.c
=5
8c]
8c
4B-
=6
16c
8.B-
8A-
16.F
32F
=7
8.F
16F
4F
=8||
*M3/4
16c
8.c
2B-
=9||
*M2/4
8B-
8B-
8A-
8F
=10
12A-
12A-
12A-
8.F
16F
=11
4.F
8F
=12||
*M3/4
2.F
=13||
*M2/4
16f
8.f
16f
8.c
=14
8c
8c
16c
8.B-
=15
16c
8.B-
8A-
16.F
32F
=16
8.F
16F
8.F
16F
=17||
*M3/4
8.c
16f
4c
16.B-
32B-
8B-
=18||
*M2/4
4B-
8A-
8F
=19||
*M3/4
8A-
8B-
8A-
8F
8F
8F
=20
2F
4F
==
*-
!!!CNT: Native American -- Sioux
!!!MRD: 1911/07//-1914///
!!!OCL: Frances Densmore
!!!YOR1: Teton Sioux Music, Bulletin 61,
!!!YOR2: Bureau of American Ethnology, Smithsonian Institution
!!!PPR: Government Printing Office
!!!PPP: Washington, D.C.
!!!PDT: 1918///
!!!ENC: Craig Stuart Sapp
!!!END: 2002/03/25/
!!!EEV: 2002/03/31/
!!!AGN: War Song/Song of Personal Narrative Concerning War
!!!MPN@@SIO: Tatangk'-ehang'ni
!!!MPN@ENG: Old Buffalo
!!!TXO: Teton Sioux
!!!MLC: Standing Rock Reservation, South Dakota, United States of America
!!!ARL: 45.9/-100.7#
!!!catalog: Catalogue No. 638
!!!PPG: 414
!!!EFL: 184/245
!!!VTS: 2773224228
